src/Assets/icons/close-modal.svg

<svg width="48" height="48" viewBox="0 0 48 48" fill="none" xmlns="http://www.w3.org/2000/svg">
<rect x="4" y="4" width="40" height="40" fill="#2D2934"/>
<path d="M30.0307 27.5405L26.4727 23.9845L30.0287 20.4285C30.7127 19.7465 30.7127 18.6365 30.0287 17.9545C29.3447 17.2665 28.2387 17.2685 27.5547 17.9525L23.9967 21.5085L20.4387 17.9485C19.7547 17.2645 18.6467 17.2685 17.9627 17.9485C17.2807 18.6325 17.2807 19.7425 17.9627 20.4245L21.5227 23.9845L17.9707 27.5345C17.2867 28.2185 17.2867 29.3285 17.9707 30.0085C18.3127 30.3525 18.7587 30.5225 19.2067 30.5225C19.6567 30.5225 20.1027 30.3525 20.4447 30.0105L23.9967 26.4585L27.5567 30.0165C27.8987 30.3585 28.3447 30.5285 28.7927 30.5285C29.2407 30.5285 29.6887 30.3565 30.0307 30.0165C30.7147 29.3325 30.7147 28.2245 30.0307 27.5405Z" fill="white"/>
</svg>

<svg xmlns="http://www.w3.org/2000/svg" width="48" height="48" fill="none" xmlns:v="https://vecta.io/nano"><path fill="#2d2934" d="M4 4h40v40H4z"/><path d="M30.031 27.541l-3.558-3.556 3.556-3.556a1.75 1.75 0 0 0 0-2.474c-.684-.688-1.79-.686-2.474-.002l-3.558 3.556-3.558-3.56c-.684-.684-1.792-.68-2.476 0s-.682 1.794 0 2.476l3.56 3.56-3.552 3.55a1.75 1.75 0 0 0 0 2.474c.342.344.788.514 1.236.514a1.74 1.74 0 0 0 1.238-.512l3.552-3.552 3.56 3.558a1.74 1.74 0 0 0 1.236.512c.448 0 .896-.172 1.238-.512a1.75 1.75 0 0 0 0-2.476z" fill="#fff"/></svg>
